assets/toolbar-handle.svg

<?xml version="1.0" encoding="UTF-8" standalone="no"?>
<!-- Uploaded to: SVG Repo, www.svgrepo.com, Transformed by: SVG Repo Mixer Tools -->

<svg
   fill="#424242"
   width="30"
   height="15"
   viewBox="0 0 1.35 0.675"
   version="1.1"
   preserveAspectRatio="xMidYMid"
   id="svg8"
   sodipodi:docname="toolbar-handle.svg"
   inkscape:version="1.3.2 (091e20e, 2023-11-25, custom)"
   xmlns:inkscape="http://www.inkscape.org/namespaces/inkscape"
   xmlns:sodipodi="http://sodipodi.sourceforge.net/DTD/sodipodi-0.dtd"
   xmlns="http://www.w3.org/2000/svg"
   xmlns:svg="http://www.w3.org/2000/svg">
  <defs
     id="defs8" />
  <sodipodi:namedview
     id="namedview8"
     pagecolor="#505050"
     bordercolor="#eeeeee"
     borderopacity="1"
     inkscape:showpageshadow="0"
     inkscape:pageopacity="0"
     inkscape:pagecheckerboard="0"
     inkscape:deskcolor="#505050"
     inkscape:zoom="21.948594"
     inkscape:cx="16.606986"
     inkscape:cy="13.076008"
     inkscape:window-width="1920"
     inkscape:window-height="991"
     inkscape:window-x="-9"
     inkscape:window-y="-9"
     inkscape:window-maximized="1"
     inkscape:current-layer="SVGRepo_iconCarrier" />
  <g
     id="SVGRepo_bgCarrier"
     stroke-width="0"
     transform="translate(0.00579897,-0.08698454)" />
  <g
     id="SVGRepo_tracerCarrier"
     stroke-linecap="round"
     stroke-linejoin="round"
     transform="translate(0.00579897,-0.08698454)" />
  <g
     id="SVGRepo_iconCarrier"
     transform="translate(0.00579897,-0.08698454)">
    <title
       id="title1">bar-code-line</title>
    <path
       d="m 0.13738034,0.31173448 a 0.01999651,0.01127638 0 0 0 -0.019997,0.0112765 v 0.20297488 a 0.01999651,0.01127638 0 0 0 0.0399929,0 v -0.2029749 a 0.01999651,0.01127638 0 0 0 -0.019997,-0.0112765 z"
       class="clr-i-outline clr-i-outline-path-2"
       id="path2"
       style="stroke-width:0.0150163" />
    <path
       d="m 0.21919892,0.31172063 a 0.01999651,0.01127638 0 0 0 -0.019997,0.0112765 v 0.20297488 a 0.0199966,0.01127644 0 0 0 0.0399932,0 v -0.2029749 a 0.01999651,0.01127638 0 0 0 -0.0199962,-0.0112765 z"
       class="clr-i-outline clr-i-outline-path-3"
       id="path3"
       style="stroke-width:0.0150163" />
    <path
       d="m 0.30101779,0.31173448 a 0.01999651,0.01127638 0 0 0 -0.019997,0.0112765 v 0.20297488 a 0.01999651,0.01127638 0 0 0 0.0399929,0 v -0.2029749 a 0.01999651,0.01127638 0 0 0 -0.019997,-0.0112765 z"
       class="clr-i-outline clr-i-outline-path-4"
       id="path4"
       style="stroke-width:0.0150163" />
    <path
       d="m 0.38283637,0.31173448 a 0.01999651,0.01127638 0 0 0 -0.019997,0.0112765 v 0.20297488 a 0.01999651,0.01127638 0 0 0 0.0399929,0 v -0.2029749 a 0.01999651,0.01127638 0 0 0 -0.019997,-0.0112765 z"
       class="clr-i-outline clr-i-outline-path-5"
       id="path5"
       style="stroke-width:0.0150163" />
    <path
       d="m 0.46465494,0.31172063 a 0.01999651,0.01127638 0 0 0 -0.019997,0.0112765 v 0.20297488 a 0.0199966,0.01127644 0 0 0 0.0399932,0 v -0.2029749 a 0.01999651,0.01127638 0 0 0 -0.0199962,-0.0112765 z"
       class="clr-i-outline clr-i-outline-path-6"
       id="path6"
       style="stroke-width:0.0150163" />
    <path
       d="m 0.54647382,0.31173448 a 0.01999651,0.01127638 0 0 0 -0.019997,0.0112765 v 0.20297488 a 0.01999651,0.01127638 0 0 0 0.0399929,0 v -0.2029749 a 0.01999651,0.01127638 0 0 0 -0.019997,-0.0112765 z"
       class="clr-i-outline clr-i-outline-path-7"
       id="path7"
       style="stroke-width:0.0150163" />
    <path
       d="m 0.05556177,0.31173448 a 0.01999651,0.01127638 0 0 0 -0.019997,0.0112765 v 0.20297488 a 0.01999651,0.01127638 0 0 0 0.0399929,0 v -0.2029749 a 0.01999651,0.01127638 0 0 0 -0.019997,-0.0112765 z"
       class="clr-i-outline clr-i-outline-path-2"
       id="path2-1"
       style="stroke-width:0.0150163" />
    <path
       d="m 0.62829239,0.31173448 a 0.01999651,0.01127638 0 0 0 -0.019997,0.0112765 v 0.20297488 a 0.01999651,0.01127638 0 0 0 0.0399929,0 v -0.2029749 a 0.01999651,0.01127638 0 0 0 -0.0199969,-0.0112765 z"
       class="clr-i-outline clr-i-outline-path-7"
       id="path7-5"
       style="stroke-width:0.0150163" />
    <path
       d="m 0.71011097,0.31173448 a 0.01999651,0.01127638 0 0 0 -0.019997,0.0112765 v 0.20297488 a 0.01999651,0.01127638 0 0 0 0.0399929,0 v -0.2029749 a 0.01999651,0.01127638 0 0 0 -0.0199969,-0.0112765 z"
       class="clr-i-outline clr-i-outline-path-7"
       id="path7-5-6"
       style="stroke-width:0.0150163" />
    <path
       d="m 0.79192954,0.31173448 a 0.01999651,0.01127638 0 0 0 -0.019997,0.0112765 v 0.20297488 a 0.01999651,0.01127638 0 0 0 0.0399929,0 v -0.2029749 a 0.01999651,0.01127638 0 0 0 -0.0199969,-0.0112765 z"
       class="clr-i-outline clr-i-outline-path-7"
       id="path7-5-0"
       style="stroke-width:0.0150163" />
    <path
       d="m 0.87374812,0.31172631 a 0.01999651,0.01127638 0 0 0 -0.019997,0.0112765 v 0.20297488 a 0.01999651,0.01127638 0 0 0 0.039993,0 v -0.2029749 a 0.01999651,0.01127638 0 0 0 -0.019997,-0.0112765 z"
       class="clr-i-outline clr-i-outline-path-7"
       id="path7-5-4"
       style="stroke-width:0.0150163" />
    <path
       d="m 0.95556679,0.31173448 a 0.01999651,0.01127638 0 0 0 -0.019997,0.0112765 v 0.20297488 a 0.01999651,0.01127638 0 0 0 0.0399929,0 v -0.2029749 a 0.01999651,0.01127638 0 0 0 -0.0199969,-0.0112765 z"
       class="clr-i-outline clr-i-outline-path-7"
       id="path7-5-5"
       style="stroke-width:0.0150163" />
    <path
       d="m 1.0373854,0.31172631 a 0.01999651,0.01127638 0 0 0 -0.019997,0.0112765 v 0.20297488 a 0.01999651,0.01127638 0 0 0 0.039993,0 v -0.2029749 a 0.01999651,0.01127638 0 0 0 -0.019997,-0.0112765 z"
       class="clr-i-outline clr-i-outline-path-7"
       id="path7-5-6-6"
       style="stroke-width:0.0150163" />
    <path
       d="m 1.119204,0.31172631 a 0.01999651,0.01127638 0 0 0 -0.019997,0.0112765 v 0.20297488 a 0.01999651,0.01127638 0 0 0 0.039993,0 V 0.32300279 A 0.01999651,0.01127638 0 0 0 1.119203,0.31172629 Z"
       class="clr-i-outline clr-i-outline-path-7"
       id="path7-5-0-5"
       style="stroke-width:0.0150163" />
    <path
       d="m 1.2010226,0.31172631 a 0.01999651,0.01127638 0 0 0 -0.019997,0.0112765 v 0.20297488 a 0.01999651,0.01127638 0 0 0 0.039993,0 v -0.2029749 a 0.01999651,0.01127638 0 0 0 -0.019997,-0.0112765 z"
       class="clr-i-outline clr-i-outline-path-7"
       id="path7-5-4-8"
       style="stroke-width:0.0150163" />
    <path
       d="m 1.2828413,0.31172631 a 0.01999651,0.01127638 0 0 0 -0.019997,0.0112765 v 0.20297488 a 0.01999651,0.01127638 0 0 0 0.039993,0 v -0.2029749 a 0.01999651,0.01127638 0 0 0 -0.019997,-0.0112765 z"
       class="clr-i-outline clr-i-outline-path-7"
       id="path7-5-4-8-2"
       style="stroke-width:0.0150163" />
    <rect
       x="-0.005798969"
       y="0.086984538"
       width="36"
       height="36"
       fill-opacity="0"
       id="rect8" />
  </g>
</svg>

<?xml version="1.0" encoding="UTF-8" standalone="no"?>
<!-- Uploaded to: SVG Repo, www.svgrepo.com, Transformed by: SVG Repo Mixer Tools -->

<svg
   fill="#424242"
   width="30"
   height="15"
   viewBox="0 0 1.35 0.675"
   version="1.1"
   preserveAspectRatio="xMidYMid"
   id="svg8"
   sodipodi:docname="toolbar-handle.svg"
   inkscape:version="1.3.2 (091e20e, 2023-11-25, custom)"
   xmlns:inkscape="http://www.inkscape.org/namespaces/inkscape"
   xmlns:sodipodi="http://sodipodi.sourceforge.net/DTD/sodipodi-0.dtd"
   xmlns="http://www.w3.org/2000/svg"
   xmlns:svg="http://www.w3.org/2000/svg">
  <defs
     id="defs8" />
  <sodipodi:namedview
     id="namedview8"
     pagecolor="#505050"
     bordercolor="#eeeeee"
     borderopacity="1"
     inkscape:showpageshadow="0"
     inkscape:pageopacity="0"
     inkscape:pagecheckerboard="0"
     inkscape:deskcolor="#505050"
     inkscape:zoom="21.948594"
     inkscape:cx="16.606986"
     inkscape:cy="13.076008"
     inkscape:window-width="1920"
     inkscape:window-height="991"
     inkscape:window-x="-9"
     inkscape:window-y="-9"
     inkscape:window-maximized="1"
     inkscape:current-layer="SVGRepo_iconCarrier" />
  <g
     id="SVGRepo_bgCarrier"
     stroke-width="0"
     transform="translate(0.00579897,-0.08698454)" />
  <g
     id="SVGRepo_tracerCarrier"
     stroke-linecap="round"
     stroke-linejoin="round"
     transform="translate(0.00579897,-0.08698454)" />
  <g
     id="SVGRepo_iconCarrier"
     transform="translate(0.00579897,-0.08698454)">
    <title
       id="title1">bar-code-line</title>
    <path
       d="m 0.1452776,0.28007715 a 0.02560945,0.01444161 0 0 0 -0.0256101,0.0144418 v 0.25994908 a 0.02560945,0.01444161 0 0 0 0.0512187,0 V 0.29451893 A 0.02560945,0.01444161 0 0 0 0.1452761,0.28007713 Z"
       class="clr-i-outline clr-i-outline-path-2"
       id="path2"
       style="stroke-width:0.0192313" />
    <path
       d="m 0.25006231,0.28005941 a 0.02560945,0.01444161 0 0 0 -0.0256101,0.0144418 v 0.25994907 a 0.02560956,0.01444169 0 0 0 0.0512191,0 v -0.2599491 a 0.02560945,0.01444161 0 0 0 -0.025609,-0.0144418 z"
       class="clr-i-outline clr-i-outline-path-3"
       id="path3"
       style="stroke-width:0.0192313" />
    <path
       d="m 0.3548474,0.28007715 a 0.02560945,0.01444161 0 0 0 -0.0256101,0.0144418 v 0.25994908 a 0.02560945,0.01444161 0 0 0 0.0512187,0 V 0.29451893 A 0.02560945,0.01444161 0 0 0 0.3548459,0.28007713 Z"
       class="clr-i-outline clr-i-outline-path-4"
       id="path4"
       style="stroke-width:0.0192313" />
    <path
       d="m 0.45963211,0.28007715 a 0.02560945,0.01444161 0 0 0 -0.0256101,0.0144418 v 0.25994908 a 0.02560945,0.01444161 0 0 0 0.0512187,0 v -0.2599491 a 0.02560945,0.01444161 0 0 0 -0.0256101,-0.0144418 z"
       class="clr-i-outline clr-i-outline-path-5"
       id="path5"
       style="stroke-width:0.0192313" />
    <path
       d="m 0.56441681,0.28005941 a 0.02560945,0.01444161 0 0 0 -0.0256101,0.0144418 v 0.25994907 a 0.02560956,0.01444169 0 0 0 0.0512191,0 v -0.2599491 a 0.02560945,0.01444161 0 0 0 -0.025609,-0.0144418 z"
       class="clr-i-outline clr-i-outline-path-6"
       id="path6"
       style="stroke-width:0.0192313" />
    <path
       d="m 0.6692019,0.28007715 a 0.02560945,0.01444161 0 0 0 -0.0256101,0.0144418 v 0.25994908 a 0.02560945,0.01444161 0 0 0 0.0512187,0 V 0.29451893 A 0.02560945,0.01444161 0 0 0 0.6692004,0.28007713 Z"
       class="clr-i-outline clr-i-outline-path-7"
       id="path7"
       style="stroke-width:0.0192313" />
    <path
       d="m 0.0404929,0.28007715 a 0.02560945,0.01444161 0 0 0 -0.02561007,0.0144418 v 0.25994908 a 0.02560945,0.01444161 0 0 0 0.05121874,0 V 0.29451889 A 0.02560945,0.01444161 0 0 0 0.0404915,0.28007712 Z"
       class="clr-i-outline clr-i-outline-path-2"
       id="path2-1"
       style="stroke-width:0.0192313" />
    <path
       d="m 0.7739866,0.28007715 a 0.02560945,0.01444161 0 0 0 -0.0256101,0.0144418 v 0.25994908 a 0.02560945,0.01444161 0 0 0 0.0512187,0 V 0.29451893 A 0.02560945,0.01444161 0 0 0 0.7739853,0.28007713 Z"
       class="clr-i-outline clr-i-outline-path-7"
       id="path7-5"
       style="stroke-width:0.0192313" />
    <path
       d="m 0.87877131,0.28007715 a 0.02560945,0.01444161 0 0 0 -0.0256101,0.0144418 v 0.25994908 a 0.02560945,0.01444161 0 0 0 0.0512187,0 v -0.2599491 a 0.02560945,0.01444161 0 0 0 -0.0256099,-0.0144418 z"
       class="clr-i-outline clr-i-outline-path-7"
       id="path7-5-6"
       style="stroke-width:0.0192313" />
    <path
       d="m 0.98355593,0.28007715 a 0.02560945,0.01444161 0 0 0 -0.02561,0.0144418 v 0.25994908 a 0.02560945,0.01444161 0 0 0 0.0512187,0 v -0.2599491 a 0.02560945,0.01444161 0 0 0 -0.02561,-0.0144418 z"
       class="clr-i-outline clr-i-outline-path-7"
       id="path7-5-0"
       style="stroke-width:0.0192313" />
    <path
       d="m 1.0883407,0.28006668 a 0.02560945,0.01444161 0 0 0 -0.02561,0.0144418 v 0.25994908 a 0.0256095,0.01444164 0 0 0 0.051219,0 V 0.29450842 a 0.02560945,0.01444161 0 0 0 -0.02561,-0.0144418 z"
       class="clr-i-outline clr-i-outline-path-7"
       id="path7-5-4"
       style="stroke-width:0.0192313" />
    <path
       d="m 1.1931255,0.28007715 a 0.02560945,0.01444161 0 0 0 -0.02561,0.0144418 v 0.25994908 a 0.0256095,0.01444164 0 0 0 0.051219,0 v -0.2599491 a 0.02560945,0.01444161 0 0 0 -0.02561,-0.0144418 z"
       class="clr-i-outline clr-i-outline-path-7"
       id="path7-5-5"
       style="stroke-width:0.0192313" />
    <path
       d="m 1.2979102,0.28006668 a 0.02560945,0.01444161 0 0 0 -0.02561,0.0144418 v 0.25994908 a 0.0256095,0.01444164 0 0 0 0.051219,0 V 0.29450842 a 0.02560945,0.01444161 0 0 0 -0.02561,-0.0144418 z"
       class="clr-i-outline clr-i-outline-path-7"
       id="path7-5-6-6"
       style="stroke-width:0.0192313" />
    <rect
       x="-0.005798969"
       y="0.086984538"
       width="36"
       height="36"
       fill-opacity="0"
       id="rect8" />
  </g>
</svg>
